sort-bool-descending.svg

<svg fill="currentColor" viewBox="0 0 24 24"><path d="M19 7h3l-4-4-4 4h3v14h2M5 7c0 1.1.9 2 2 2s2-.9 2-2-.9-2-2-2-2 .9-2 2m2-4c2.21 0 4 1.79 4 4s-1.79 4-4 4-4-1.79-4-4 1.79-4 4-4m0 10c-2.21 0-4 1.79-4 4s1.79 4 4 4 4-1.79 4-4-1.79-4-4-4"/></svg>

<svg  viewBox="0 0 24 24" fill="currentColor"><path  d="M19 7H22L18 3L14 7H17V21H19M5 7C5 8.1 5.9 9 7 9C8.1 9 9 8.1 9 7C9 5.9 8.1 5 7 5C5.9 5 5 5.9 5 7M7 3C9.21 3 11 4.79 11 7C11 9.21 9.21 11 7 11C4.79 11 3 9.21 3 7C3 4.79 4.79 3 7 3M7 13C4.79 13 3 14.79 3 17C3 19.21 4.79 21 7 21C9.21 21 11 19.21 11 17C11 14.79 9.21 13 7 13Z"/></svg>
